dist/img/catalog/discount_decor_4.svg

<svg width="165" height="164" viewBox="0 0 165 164" fill="none" xmlns="http://www.w3.org/2000/svg">
<path d="M48.8004 96.3312L60.2106 102.874L45.3606 74.25L12.1156 75.2119L22.8512 81.3967L8.25 107.646C8.25 107.646 19.976 128.287 27.9703 140.61C31.2378 145.647 35.6105 148.5 39.8062 148.5H82.5V118.603L36.1272 118.589L48.8004 96.3312Z" fill="#EDF0F6"/>
<path d="M84.3901 60.4112L110.993 62.3041L123.75 33.5739L114.844 39.6359L101.419 14.2147C101.419 14.2147 81.4635 13.9437 69.1552 14.6494C64.1201 14.9392 60.2416 17.2387 58.5462 20.7955L41.25 57.0974L63.2744 71.9136L82.0693 32.4895L93.3313 54.2931L84.3901 60.4112Z" fill="#EDF0F6"/>
<path d="M163.753 100.846L142.539 66L114.258 79.5921L137.281 117.443L109.93 117.208L110.34 106.204L90.75 130.054L108.176 156.75L108.691 145.182L140.784 145.169C140.784 145.169 154.487 126.214 162.159 114.096C165.312 109.138 165.837 104.277 163.753 100.846Z" fill="#EDF0F6"/>
</svg>

<svg width="165" height="164" viewBox="0 0 165 164" fill="none" xmlns="http://www.w3.org/2000/svg"><path d="M48.8 96.331l11.41 6.543L45.36 74.25l-33.244.962 10.735 6.185L8.25 107.646s11.726 20.641 19.72 32.964c3.268 5.037 7.64 7.89 11.836 7.89H82.5v-29.897l-46.373-.014L48.8 96.331zm35.59-35.92l26.603 1.893 12.757-28.73-8.906 6.062-13.425-25.421s-19.956-.271-32.264.434c-5.035.29-8.913 2.59-10.609 6.147L41.25 57.097l22.024 14.817L82.07 32.489l11.262 21.804-8.94 6.118zm79.363 40.435L142.539 66l-28.281 13.592 23.023 37.851-27.351-.235.41-11.004-19.59 23.85 17.426 26.696.515-11.568 32.093-.013s13.703-18.955 21.375-31.073c3.153-4.958 3.678-9.819 1.594-13.25z" fill="#EDF0F6"/></svg>
